X:8382
T:Karen Tweed's
M:6/8
L:1/8
R:jig
D:Mary Custy & Eoin O'Neill, With a lot of help from their friends
K:Am
ced AGE|GAB A2 d|eag ecd|eAB AGE|
ced AGE|~G3 Gce|eaa ged|cAG A3 :|
|: a2 2 ged|edg edc|A/B/cA GAc|dec deg|
aeg dec|AcA GEE|cde ged|cAG A3 :|
